X: 31113
T: COTILLION No. 17. ROCHESTER SETT tune 5
C:
%R: march, reel
B: Elias Howe "The Musician's Companion" Part 3 1844 p.111 #3
S: http://imslp.org/wiki/The_Musician's_Companion_(Howe,_Elias)
Z: 2015 John Chambers <jc:trillian.mit.edu>
M: 2/4
L: 1/16
K: C
% - - - - - - - - - - - - - - - - - - - - - - - - - - - - -
G2 |\
G2c2c2e2 | dcBc d2g2 | e2c2 A2d2 | c4 B2G2 |\
G2c2c2e2 | dcBc d2c2 | B2G2 A2^F2 | G6 H|]
e2 |\
d2G2 G2e2 | d2G2 G2c2 | Bcde f2e2 | e4 d2G2 |\
e3c d3B | c2A2G2F2 | E2c2 D2B2 | c6 "^D.C."y|]
G2 |\
G2c2c2e2 | e6 (dc) | B2d2d2f2 | f6 d2 |\
edce dcBd | c2A2G2F2 | E2d2 D2B2 | c6 "^D.C."y |]
% - - - - - - - - - - Dance description - - - - - - - - - -
%%begintext align
%% First 2 forward and back,
%% cross over,
%% chassa de chassa,
%% cross back,
%% balance and turn.
%% Next 2 forward, &c.
%%endtext
% - - - - - - - - - - - - - - - - - - - - - - - - - - - - -
%%sep 1 1 300
